X:17
T: Fanny Hill
C: David Grisman
S: MandoZine TablEdit Archives
Z: TablEdited by Mike Stangeland for MandoZine
L: 1/8
Q: 480
M: 4/4
K: A
 z4 zA =cd |: "A"[e2e2] [ee][ee] [e2e2] ee | "G"ef =gf =gf ed | "A"[e2e2] [ee][ee] [e2e2] ee | "D"e=g ab =ge ee |
  "A"[e2e2] [ee][ee] [e2e2] ee | "G"ef =gf =gf ed | "E7"[e2e2] e=g ed =cA | "A"d=c A=G [A4A4] :|
 |: 3 A,2 =CE DE =G=c | A=c d=g e=g ed | "C"=c2 =G=c A=c A=G | E=G ED =CE D=C | "A"A,2 =CE DE =G=c |
 A=c d=g e=g ed | =cB A=G ED =CD | EF GA "E7"[e4B4] |  [e2e2] e=g ed =cA | d=c A=G [A4A4] :|
